packages/icons/src/emoji/svg/dress.svg

<svg width="120" height="120" viewBox="0 0 120 120" fill="none" xmlns="http://www.w3.org/2000/svg">
<path d="M108.863 76.425C101.307 65.5313 92.0065 60.7594 87.7878 54.6188C84.2722 49.5 81.6472 42.4219 81.9565 36.1125C82.0878 33.3563 84.6847 24.1594 84.6847 24.1594C84.6847 24.1594 88.5284 24.1594 91.8284 20.8125C94.2565 18.3469 95.869 14.7844 96.2722 11.5219C96.4503 10.05 96.919 8.03442 95.3815 7.09692C94.3972 6.49692 93.1972 6.16879 92.119 5.80317C90.1784 5.13754 88.2753 4.86567 86.3909 3.95629C84.2159 2.89692 82.144 1.70629 79.6878 1.44379C78.3003 1.29379 76.9597 1.35004 75.7222 2.05317C75.0378 2.43754 75.0565 2.56879 75.3003 3.18754C76.4065 6.01879 73.6315 8.97192 71.3722 9.97504C69.2534 10.9219 65.8128 11.8688 60.0003 11.8688C54.1878 11.8688 50.7472 10.9219 48.6284 9.97504C46.369 8.97192 43.594 6.01879 44.7003 3.18754C44.944 2.56879 44.9628 2.43754 44.2784 2.05317C43.0409 1.35004 41.7003 1.29379 40.3128 1.44379C37.8565 1.70629 35.7847 2.89692 33.6097 3.94692C31.7253 4.85629 29.8222 5.12817 27.8815 5.79379C26.8034 6.15942 25.6034 6.49692 24.619 7.08754C23.0909 8.02504 23.5503 10.0407 23.7284 11.5125C24.1222 14.775 25.744 18.3375 28.1722 20.8032C31.4722 24.15 35.3159 24.15 35.3159 24.15C35.3159 24.15 37.9128 33.3469 38.044 36.1032C38.3534 42.4125 35.7284 49.4907 32.2128 54.6094C28.0034 60.75 18.7034 65.5219 11.1378 76.4157C5.82217 84.0657 -0.0278344 97.6969 0.159666 100.219C0.356541 102.741 2.74717 103.406 4.80967 103.988C7.47217 104.738 9.13154 105.788 11.2503 107.597C13.8284 109.791 16.894 111.169 20.1847 111.9C23.5222 112.641 26.8222 112.125 30.1315 113.231C34.1815 114.581 37.744 117.056 41.8972 118.134C47.9065 119.672 56.194 117.094 60.0003 117.141C63.8065 117.094 72.094 119.681 78.1034 118.134C82.2565 117.066 85.819 114.591 89.869 113.231C93.1878 112.125 96.4784 112.65 99.8159 111.9C103.107 111.169 106.172 109.8 108.75 107.597C110.869 105.778 112.538 104.738 115.191 103.988C117.244 103.406 119.644 102.731 119.841 100.219C120.028 97.6969 114.178 84.0751 108.863 76.425Z" fill="#D7598B"/>
<mask id="mask0_212_314" style="mask-type:luminance" maskUnits="userSpaceOnUse" x="0" y="1" width="120" height="118">
<path d="M108.863 76.425C101.307 65.5313 92.0065 60.7594 87.7878 54.6188C84.2722 49.5 81.6472 42.4219 81.9565 36.1125C82.0878 33.3563 84.6847 24.1594 84.6847 24.1594C84.6847 24.1594 88.5284 24.1594 91.8284 20.8125C94.2565 18.3469 95.869 14.7844 96.2722 11.5219C96.4503 10.05 96.919 8.03442 95.3815 7.09692C94.3972 6.49692 93.1972 6.16879 92.119 5.80317C90.1784 5.13754 88.2753 4.86567 86.3909 3.95629C84.2159 2.89692 82.144 1.70629 79.6878 1.44379C78.3003 1.29379 76.9597 1.35004 75.7222 2.05317C75.0378 2.43754 75.0565 2.56879 75.3003 3.18754C76.4065 6.01879 73.6315 8.97192 71.3722 9.97504C69.2534 10.9219 65.8128 11.8688 60.0003 11.8688C54.1878 11.8688 50.7472 10.9219 48.6284 9.97504C46.369 8.97192 43.594 6.01879 44.7003 3.18754C44.944 2.56879 44.9628 2.43754 44.2784 2.05317C43.0409 1.35004 41.7003 1.29379 40.3128 1.44379C37.8565 1.70629 35.7847 2.89692 33.6097 3.94692C31.7253 4.85629 29.8222 5.12817 27.8815 5.79379C26.8034 6.15942 25.6034 6.49692 24.619 7.08754C23.0909 8.02504 23.5503 10.0407 23.7284 11.5125C24.1222 14.775 25.744 18.3375 28.1722 20.8032C31.4722 24.15 35.3159 24.15 35.3159 24.15C35.3159 24.15 37.9128 33.3469 38.044 36.1032C38.3534 42.4125 35.7284 49.4907 32.2128 54.6094C28.0034 60.75 18.7034 65.5219 11.1378 76.4157C5.82217 84.0657 -0.0278344 97.6969 0.159666 100.219C0.356541 102.741 2.74717 103.406 4.80967 103.988C7.47217 104.738 9.13154 105.788 11.2503 107.597C13.8284 109.791 16.894 111.169 20.1847 111.9C23.5222 112.641 26.8222 112.125 30.1315 113.231C34.1815 114.581 37.744 117.056 41.8972 118.134C47.9065 119.672 56.194 117.094 60.0003 117.141C63.8065 117.094 72.094 119.681 78.1034 118.134C82.2565 117.066 85.819 114.591 89.869 113.231C93.1878 112.125 96.4784 112.65 99.8159 111.9C103.107 111.169 106.172 109.8 108.75 107.597C110.869 105.778 112.538 104.738 115.191 103.988C117.244 103.406 119.644 102.731 119.841 100.219C120.028 97.6969 114.178 84.0751 108.863 76.425Z" fill="white"/>
</mask>
<g mask="url(#mask0_212_314)">
<path d="M68.0066 52.8563C81.5348 51.1407 87.4035 45.572 87.6848 45.3001L83.3723 40.8657C83.3066 40.9313 76.491 47.1657 59.9066 47.1938C43.3223 47.1657 36.5066 40.9313 36.4598 40.8938L32.1285 45.3095C32.4098 45.5907 38.3348 51.197 51.9848 52.8938C49.6879 56.6532 45.2629 61.7064 37.566 63.0939C37.566 63.0939 36.891 68.0626 39.2535 69.5532C41.6066 71.0439 42.141 71.0251 43.6316 72.5251C45.1316 74.0251 45.3754 75.4876 50.2129 76.3313C50.2129 76.3313 57.4316 70.3314 59.991 58.1438C62.5504 70.3314 69.7691 76.3313 69.7691 76.3313C74.6066 75.4876 74.8598 74.0251 76.3504 72.5251C77.841 71.0345 78.3754 71.0532 80.7285 69.5532C83.0816 68.0626 82.416 63.0939 82.416 63.0939C74.7191 61.697 70.2941 56.6157 68.0066 52.8563ZM72.4598 111.816C69.3285 111.816 67.2566 111.056 65.391 110.381C63.7223 109.772 62.2879 109.247 59.9629 109.219C57.7035 109.238 56.2598 109.772 54.6004 110.381C52.4629 111.159 50.0441 112.041 46.0598 111.759C41.2223 111.413 38.8691 109.369 36.7879 107.559C35.6535 106.556 34.566 105.619 32.991 104.916C30.8348 103.95 29.916 104.025 28.2566 104.166C26.7098 104.288 24.7973 104.438 21.7785 103.884C17.2973 103.059 15.7504 101.616 13.9035 99.5157C13.1348 98.6345 12.3473 97.7345 10.866 96.6657C7.41602 94.172 1.95039 94.3314 0.356641 94.4345L-0.0371094 88.622C3.28164 88.397 9.56289 88.5282 14.2785 91.9501C16.2848 93.4032 17.391 94.6595 18.2816 95.6626C19.5004 97.0595 20.0066 97.6313 22.8379 98.1563C25.1066 98.5782 26.4754 98.4657 27.7879 98.3626C29.7848 98.1938 31.8566 98.0345 35.3535 99.5907C37.7348 100.65 39.2723 101.991 40.6223 103.163C42.3941 104.719 43.5754 105.741 46.4629 105.947C49.2191 106.134 50.7004 105.591 52.6035 104.897C54.4973 104.203 56.6441 103.425 59.9629 103.388C63.3473 103.425 65.4941 104.203 67.3879 104.897C69.2816 105.591 70.7816 106.134 73.5191 105.947C76.416 105.741 77.5879 104.719 79.3598 103.163C80.7098 101.981 82.2379 100.65 84.6285 99.5907C88.1441 98.0345 90.1973 98.1938 92.1941 98.3626C93.516 98.4751 94.8754 98.5782 97.1441 98.1563C99.7785 97.6688 100.285 97.0782 101.4 95.7845C102.291 94.7439 103.519 93.3282 105.835 91.847C109.979 89.1939 115.079 88.097 120.188 88.7439L119.457 94.5282C114.647 93.9282 111.094 95.4001 108.966 96.7595C107.372 97.7813 106.613 98.6626 105.807 99.5907C104.072 101.606 102.507 103.088 98.1941 103.884C95.166 104.447 93.2535 104.288 91.716 104.166C90.0473 104.025 89.1379 103.95 86.9816 104.916C85.4066 105.619 84.3191 106.556 83.1848 107.559C81.1035 109.369 78.7598 111.422 73.9129 111.759C73.4254 111.806 72.9285 111.816 72.4598 111.816Z" fill="white"/>
</g>
</svg>

<svg xmlns="http://www.w3.org/2000/svg" fill="none" aria-hidden="true" data-slot="icon" viewBox="0 0 120 120"><path fill="#D7598B" d="M108.863 76.425c-7.556-10.894-16.856-15.666-21.075-21.806-3.516-5.119-6.14-12.197-5.831-18.507.13-2.756 2.728-11.953 2.728-11.953s3.843 0 7.143-3.346c2.428-2.466 4.041-6.029 4.444-9.291.178-1.472.647-3.488-.89-4.425-.985-.6-2.185-.928-3.263-1.294-1.94-.665-3.844-.937-5.728-1.847-2.175-1.06-4.247-2.25-6.703-2.512-1.388-.15-2.728-.094-3.966.61-.684.384-.665.515-.422 1.134 1.106 2.83-1.668 5.784-3.928 6.787-2.119.947-5.56 1.894-11.372 1.894s-9.253-.947-11.372-1.894C46.37 8.972 43.594 6.019 44.7 3.188c.244-.62.263-.75-.422-1.135-1.237-.703-2.578-.76-3.965-.61-2.457.263-4.528 1.454-6.703 2.504-1.885.91-3.788 1.181-5.728 1.847-1.079.365-2.279.703-3.263 1.294-1.528.937-1.069 2.953-.89 4.424.393 3.263 2.015 6.825 4.443 9.291 3.3 3.347 7.144 3.347 7.144 3.347s2.597 9.197 2.728 11.953c.31 6.31-2.316 13.388-5.831 18.506-4.21 6.141-13.51 10.913-21.075 21.807C5.822 84.066-.028 97.696.16 100.219c.197 2.522 2.587 3.187 4.65 3.769 2.662.75 4.322 1.8 6.44 3.609 2.578 2.194 5.644 3.572 8.935 4.303 3.337.741 6.637.225 9.947 1.331 4.05 1.35 7.612 3.825 11.765 4.903 6.01 1.538 14.297-1.04 18.103-.993 3.807-.047 12.094 2.54 18.103.993 4.154-1.068 7.716-3.543 11.766-4.903 3.319-1.106 6.61-.581 9.947-1.331 3.291-.731 6.356-2.1 8.934-4.303 2.119-1.819 3.788-2.859 6.441-3.609 2.053-.582 4.453-1.257 4.65-3.769.187-2.522-5.663-16.144-10.978-23.794"/><mask id="a" width="120" height="118" x="0" y="1" maskUnits="userSpaceOnUse" style="mask-type:luminance"><path fill="#fff" d="M108.863 76.425c-7.556-10.894-16.856-15.666-21.075-21.806-3.516-5.119-6.14-12.197-5.831-18.507.13-2.756 2.728-11.953 2.728-11.953s3.843 0 7.143-3.346c2.428-2.466 4.041-6.029 4.444-9.291.178-1.472.647-3.488-.89-4.425-.985-.6-2.185-.928-3.263-1.294-1.94-.665-3.844-.937-5.728-1.847-2.175-1.06-4.247-2.25-6.703-2.512-1.388-.15-2.728-.094-3.966.61-.684.384-.665.515-.422 1.134 1.106 2.83-1.668 5.784-3.928 6.787-2.119.947-5.56 1.894-11.372 1.894s-9.253-.947-11.372-1.894C46.37 8.972 43.594 6.019 44.7 3.188c.244-.62.263-.75-.422-1.135-1.237-.703-2.578-.76-3.965-.61-2.457.263-4.528 1.454-6.703 2.504-1.885.91-3.788 1.181-5.728 1.847-1.079.365-2.279.703-3.263 1.294-1.528.937-1.069 2.953-.89 4.424.393 3.263 2.015 6.825 4.443 9.291 3.3 3.347 7.144 3.347 7.144 3.347s2.597 9.197 2.728 11.953c.31 6.31-2.316 13.388-5.831 18.506-4.21 6.141-13.51 10.913-21.075 21.807C5.822 84.066-.028 97.696.16 100.219c.197 2.522 2.587 3.187 4.65 3.769 2.662.75 4.322 1.8 6.44 3.609 2.578 2.194 5.644 3.572 8.935 4.303 3.337.741 6.637.225 9.947 1.331 4.05 1.35 7.612 3.825 11.765 4.903 6.01 1.538 14.297-1.04 18.103-.993 3.807-.047 12.094 2.54 18.103.993 4.154-1.068 7.716-3.543 11.766-4.903 3.319-1.106 6.61-.581 9.947-1.331 3.291-.731 6.356-2.1 8.934-4.303 2.119-1.819 3.788-2.859 6.441-3.609 2.053-.582 4.453-1.257 4.65-3.769.187-2.522-5.663-16.144-10.978-23.794"/></mask><g mask="url(#a)"><path fill="#fff" d="M68.007 52.856c13.528-1.715 19.396-7.284 19.678-7.556l-4.313-4.434c-.065.065-6.881 6.3-23.465 6.328-16.585-.028-23.4-6.263-23.447-6.3l-4.331 4.416c.28.28 6.206 5.887 19.856 7.584-2.297 3.76-6.722 8.812-14.419 10.2 0 0-.675 4.969 1.688 6.46 2.353 1.49 2.887 1.471 4.378 2.971 1.5 1.5 1.743 2.963 6.58 3.806 0 0 7.22-6 9.779-18.187 2.56 12.187 9.778 18.187 9.778 18.187 4.838-.843 5.09-2.306 6.581-3.806 1.491-1.49 2.025-1.472 4.379-2.972 2.353-1.49 1.687-6.46 1.687-6.46-7.697-1.396-12.122-6.477-14.41-10.237m4.453 58.96c-3.131 0-5.203-.76-7.069-1.435-1.669-.609-3.103-1.134-5.428-1.162-2.26.019-3.703.553-5.363 1.162-2.137.778-4.556 1.66-8.54 1.378-4.838-.346-7.19-2.39-9.272-4.2-1.134-1.003-2.222-1.94-3.797-2.643-2.156-.966-3.075-.891-4.734-.75-1.547.122-3.46.272-6.478-.282-4.482-.825-6.029-2.268-7.876-4.368-.768-.882-1.556-1.782-3.037-2.85-3.45-2.494-8.916-2.335-10.51-2.231l-.393-5.813c3.319-.225 9.6-.094 14.316 3.328 2.006 1.453 3.112 2.71 4.003 3.713 1.218 1.397 1.725 1.968 4.556 2.493 2.269.422 3.637.31 4.95.207 1.997-.17 4.069-.329 7.565 1.228 2.382 1.059 3.92 2.4 5.27 3.572 1.771 1.556 2.952 2.578 5.84 2.784 2.756.187 4.237-.356 6.14-1.05 1.894-.694 4.041-1.472 7.36-1.509 3.384.037 5.531.815 7.425 1.509s3.394 1.237 6.131 1.05c2.897-.206 4.069-1.228 5.84-2.784 1.35-1.182 2.879-2.513 5.27-3.572 3.515-1.556 5.568-1.397 7.565-1.228 1.322.112 2.681.215 4.95-.207 2.634-.487 3.141-1.078 4.256-2.372.891-1.04 2.119-2.456 4.435-3.937 4.144-2.653 9.244-3.75 14.353-3.103l-.731 5.784c-4.81-.6-8.363.872-10.491 2.231-1.594 1.022-2.353 1.904-3.159 2.832-1.735 2.015-3.3 3.497-7.613 4.293-3.028.563-4.94.404-6.478.282-1.669-.141-2.578-.216-4.734.75-1.575.703-2.663 1.64-3.797 2.643-2.082 1.81-4.425 3.863-9.272 4.2-.488.047-.984.057-1.453.057"/></g></svg>
